X:495
T:Reel 495
M:4/4
K:Gmaj
L:1/8
dc|BGAG BGAF|GGBd gedc|BGAG BGAG|EAAG A2dc|BGAG BGAF|G2Bd gedc|BGAG FGAc|BGAF G2:|Bc|dgge fefg|dgef g2d2|dggf e2dB|c2AG AcBA|dggf edeg|dgfd e2dB|c2ec BABc|dBAB G2|
